;FLAVOR:Marlin
;TIME:7374
;Filament used: 5.10493m
;Layer height: 0.2
;MINX:16.559
;MINY:131.052
;MINZ:0.2
;MAXX:142.183
;MAXY:248.999
;MAXZ:2.4
;TARGET_MACHINE.NAME:Creality CR-10S Pro
;Generated with Cura_SteamEngine 5.6.0
M140 S50
M105
M190 S50
M104 S200
M105
M109 S200
M82 ;absolute extrusion mode
M201 X500.00 Y500.00 Z100.00 E5000.00 ;Setup machine max acceleration
M203 X500.00 Y500.00 Z10.00 E50.00 ;Setup machine max feedrate
M204 P500.00 R1000.00 T500.00 ;Setup Print/Retract/Travel acceleration
M205 X8.00 Y8.00 Z0.40 E5.00 ;Setup Jerk
M220 S100 ;Reset Feedrate
M221 S100 ;Reset Flowrate

G28 ;Home
G29 ;Auto bed Level
M420 S1 ;Save and use mesh

G92 E0 ;Reset Extruder
G1 Z2.0 F3000 ;Move Z Axis up
G1 X10.1 Y20 Z0.28 F5000.0 ;Move to start position
G1 X10.1 Y200.0 Z0.28 F1500.0 E15 ;Draw the first line
G1 X10.4 Y200.0 Z0.28 F5000.0 ;Move to side a little
G1 X10.4 Y20 Z0.28 F1500.0 E30 ;Draw the second line
G92 E0 ;Reset Extruder
G1 Z2.0 F3000 ;Move Z Axis up

G92 E0
G92 E0
G1 F2700 E-5
;LAYER_COUNT:12
;LAYER:0
M107
G0 F6000 X55.149 Y134.698 Z0.2
;TYPE:SKIRT
G1 F2700 E0
G1 F1200 X55.815 Y134.44 E0.02376
G1 X56.454 Y134.214 E0.0463
G1 X57.096 Y134.014 E0.06866
G1 X60.761 Y132.947 E0.19562
G1 X61.628 Y132.709 E0.22553
G1 X62.152 Y132.578 E0.24349
G1 X62.817 Y132.439 E0.26609
G1 X66.885 Y131.699 E0.40361
G1 X67.561 Y131.585 E0.42641
G1 X68.186 Y131.499 E0.44739
G1 X68.791 Y131.438 E0.46762
G1 X72.723 Y131.133 E0.59879
G1 X73.643 Y131.073 E0.62945
G1 X74.241 Y131.052 E0.64936
G1 X74.85 Y131.053 E0.66961
G1 X78.844 Y131.154 E0.8025
G1 X79.702 Y131.188 E0.83106
G1 X80.36 Y131.233 E0.85299
G1 X80.901 Y131.292 E0.87109
G1 X85.037 Y131.827 E1.0098
G1 X85.74 Y131.929 E1.03343
G1 X86.325 Y132.031 E1.05318
G1 X86.917 Y132.156 E1.0733
G1 X90.961 Y133.108 E1.21148
G1 X91.81 Y133.324 E1.24062
G1 X94.78 Y134.119 E1.34288
G1 X97.228 Y134.694 E1.42652
G1 X99.691 Y135.201 E1.51016
G1 X102.19 Y135.642 E1.59456
G1 X104.655 Y136.005 E1.67743
G1 X107.179 Y136.305 E1.76197
G1 X109.658 Y136.529 E1.84475
G1 X112.179 Y136.683 E1.92876
G1 X115.659 Y136.831 E2.04461
G1 X116.618 Y136.888 E2.07656
G1 X119.144 Y136.967 E2.16062
G1 X121.626 Y136.975 E2.24317
G1 X124.229 Y136.918 E2.32977
G1 X125.427 Y136.966 E2.36965
G1 X125.842 Y137.007 E2.38352
G1 X126.736 Y137.137 E2.41356
G1 X127.743 Y137.374 E2.44797
G1 X128.384 Y137.58 E2.47036
G1 X128.741 Y137.707 E2.48297
G1 X129.641 Y138.075 E2.51531
G1 X130.507 Y138.52 E2.54769
G1 X131.298 Y139.019 E2.5788
G1 X131.916 Y139.481 E2.60446
G1 X132.282 Y139.774 E2.62005
G1 X132.961 Y140.37 E2.6501
G1 X133.683 Y141.127 E2.6849
G1 X134.286 Y141.887 E2.71716
G1 X134.771 Y142.616 E2.74629
G1 X134.97 Y142.945 E2.75908
G1 X135.421 Y143.768 E2.79029
G1 X135.823 Y144.686 E2.82362
G1 X136.098 Y145.478 E2.85151
G1 X136.372 Y146.468 E2.88567
G1 X136.557 Y147.495 E2.92038
G1 X136.803 Y149.495 E2.9874
G1 X137.163 Y151.969 E3.07055
G1 X137.597 Y154.445 E3.15416
G1 X138.11 Y156.961 E3.23957
G1 X138.67 Y159.361 E3.32153
G1 X139.316 Y161.808 E3.40571
G1 X140.035 Y164.252 E3.49044
G1 X140.803 Y166.611 E3.57296
G1 X141.151 Y167.588 E3.60745
G1 X141.512 Y168.641 E3.64448
G1 X141.734 Y169.378 E3.67008
G1 X141.83 Y169.747 E3.68276
G1 X142.033 Y170.699 E3.71513
G1 X142.151 Y171.666 E3.74753
G1 X142.183 Y172.631 E3.77965
G1 X142.151 Y173.357 E3.80382
G1 X142.116 Y173.793 E3.81837
G1 X141.994 Y174.761 E3.85082
G1 X141.787 Y175.71 E3.88312
G1 X141.501 Y176.635 E3.91533
G1 X141.221 Y177.334 E3.94037
G1 X140.944 Y177.957 E3.96305
G1 X140.707 Y178.458 E3.98148
G1 X139.594 Y180.9 E4.07074
G1 X138.622 Y183.208 E4.15403
G1 X137.704 Y185.569 E4.23829
G1 X136.86 Y187.938 E4.32193
G1 X136.092 Y190.302 E4.4046
G1 X135.377 Y192.734 E4.48892
G1 X134.736 Y195.161 E4.57241
G1 X134.16 Y197.631 E4.65676
G1 X132.838 Y203.986 E4.87266
G1 X132.698 Y204.611 E4.89396
G1 X132.541 Y205.226 E4.91507
G1 X132.264 Y206.192 E4.94849
G1 X131.634 Y208.269 E5.02068
G1 X131.262 Y209.417 E5.06082
G1 X130.998 Y210.163 E5.08714
G1 X130.698 Y210.939 E5.11481
G1 X130.153 Y212.254 E5.16216
G1 X128.658 Y215.657 E5.28578
G1 X128.45 Y216.103 E5.30215
G1 X127.723 Y217.554 E5.35613
G1 X127.167 Y218.569 E5.39462
G1 X125.826 Y220.856 E5.4828
G1 X125.445 Y221.486 E5.50729
G1 X125.102 Y222.013 E5.5282
G1 X124.577 Y222.775 E5.55898
G1 X122.582 Y225.582 E5.67352
G1 X122.015 Y226.355 E5.7054
G1 X121.686 Y226.779 E5.72325
G1 X121.301 Y227.242 E5.74328
G1 X118.662 Y230.246 E5.87627
G1 X118.066 Y230.905 E5.90582
G1 X117.542 Y231.446 E5.93088
G1 X117.009 Y231.957 E5.95543
G1 X114.183 Y234.572 E6.08349
G1 X113.643 Y235.057 E6.10764
G1 X113.201 Y235.434 E6.12696
G1 X112.687 Y235.84 E6.14874
G1 X109.495 Y238.236 E6.28149
G1 X108.81 Y238.735 E6.30968
G1 X108.372 Y239.037 E6.32737
G1 X107.815 Y239.393 E6.34936
G1 X104.373 Y241.462 E6.48293
G1 X103.72 Y241.842 E6.50806
G1 X103.138 Y242.157 E6.53007
G1 X102.039 Y242.707 E6.57095
G1 X99.7 Y243.827 E6.6572
G1 X98.554 Y244.348 E6.69907
G1 X97.489 Y244.778 E6.73727
G1 X96.502 Y245.137 E6.7722
G1 X93.151 Y246.302 E6.8902
G1 X92.391 Y246.553 E6.91682
G1 X91.836 Y246.72 E6.9361
G1 X91.265 Y246.868 E6.95572
G1 X87.226 Y247.825 E7.09377
G1 X86.501 Y247.984 E7.11846
G1 X85.931 Y248.092 E7.13776
G1 X85.288 Y248.192 E7.1594
G1 X81.206 Y248.719 E7.2963
G1 X80.51 Y248.799 E7.3196
G1 X79.893 Y248.854 E7.3402
G1 X79.279 Y248.883 E7.36064
G1 X75.187 Y248.99 E7.49679
G1 X74.416 Y248.999 E7.52244
G1 X73.801 Y248.988 E7.54289
G1 X73.24 Y248.958 E7.56158
G1 X69.231 Y248.648 E7.69532
G1 X68.358 Y248.569 E7.72447
G1 X67.678 Y248.484 E7.74727
G1 X66.952 Y248.368 E7.77172
G1 X63.24 Y247.691 E7.89722
G1 X62.384 Y247.522 E7.92624
G1 X61.789 Y247.386 E7.94654
G1 X61.181 Y247.224 E7.96746
G1 X57.25 Y246.08 E8.10363
G1 X56.627 Y245.888 E8.12532
G1 X56.036 Y245.686 E8.14609
G1 X54.836 Y245.236 E8.18872
G1 X52.352 Y244.247 E8.27764
G1 X51.381 Y243.841 E8.31265
G1 X50.897 Y243.623 E8.3303
G1 X50.288 Y243.329 E8.3528
G1 X49.312 Y242.827 E8.3893
G1 X46.304 Y241.226 E8.50263
G1 X45.506 Y240.787 E8.53293
G1 X44.978 Y240.476 E8.55331
G1 X44.51 Y240.175 E8.57182
G1 X41.019 Y237.828 E8.71173
G1 X40.418 Y237.409 E8.7361
G1 X39.976 Y237.081 E8.7544
G1 X39.51 Y236.71 E8.77421
G1 X36.36 Y234.086 E8.91057
G1 X35.751 Y233.562 E8.93729
G1 X35.219 Y233.072 E8.96135
G1 X34.73 Y232.586 E8.98428
G1 X32.034 Y229.82 E9.11275
G1 X31.511 Y229.269 E9.13802
G1 X31.077 Y228.781 E9.15974
G1 X30.711 Y228.34 E9.1788
G1 X28.232 Y225.21 E9.3116
G1 X27.698 Y224.516 E9.34072
G1 X27.353 Y224.039 E9.3603
G1 X27.029 Y223.555 E9.37967
G1 X24.878 Y220.178 E9.51284
G1 X24.403 Y219.41 E9.54288
G1 X24.129 Y218.938 E9.56103
G1 X23.814 Y218.348 E9.58328
G1 X22.048 Y214.812 E9.71474
G1 X21.685 Y214.058 E9.74257
G1 X21.434 Y213.495 E9.76307
G1 X21.062 Y212.59 E9.79562
G1 X20.133 Y210.208 E9.88065
G1 X19.834 Y209.412 E9.90893
G1 X19.676 Y208.963 E9.92477
G1 X19.29 Y207.751 E9.96707
G1 X18.96 Y206.58 E10.00754
G1 X18.105 Y203.33 E10.11931
G1 X17.89 Y202.468 E10.14886
G1 X17.776 Y201.952 E10.16643
G1 X17.661 Y201.316 E10.18793
G1 X17.017 Y197.186 E10.32696
G1 X16.913 Y196.451 E10.35165
G1 X16.848 Y195.86 E10.37142
G1 X16.807 Y195.29 E10.39043
G1 X16.591 Y191.154 E10.52818
G1 X16.564 Y190.421 E10.55258
G1 X16.559 Y189.805 E10.57306
G1 X16.577 Y189.209 E10.5929
G1 X16.783 Y185.18 E10.72708
G1 X16.837 Y184.356 E10.75454
G1 X16.895 Y183.744 E10.77499
G1 X16.977 Y183.133 E10.79549
G1 X17.608 Y179.074 E10.93212
G1 X17.727 Y178.365 E10.95603
G1 X17.862 Y177.695 E10.97876
G1 X17.998 Y177.133 E10.99799
G1 X19.044 Y173.165 E11.13448
G1 X19.243 Y172.448 E11.15923
G1 X19.442 Y171.817 E11.18123
G1 X19.667 Y171.18 E11.2037
G1 X21.03 Y167.566 E11.33217
G1 X21.346 Y166.761 E11.36093
G1 X21.622 Y166.119 E11.38417
G1 X21.909 Y165.514 E11.40645
G1 X23.613 Y162.107 E11.53315
G1 X24.024 Y161.313 E11.56288
G1 X24.312 Y160.791 E11.58271
G1 X24.609 Y160.297 E11.60188
G1 X26.847 Y156.778 E11.74059
G1 X27.241 Y156.179 E11.76444
G1 X27.638 Y155.614 E11.7874
G1 X28.076 Y155.037 E11.8115
G1 X30.412 Y152.086 E11.93668
G1 X30.996 Y151.37 E11.96741
G1 X31.373 Y150.933 E11.98661
G1 X31.784 Y150.489 E12.00673
G1 X34.57 Y147.627 E12.13957
G1 X35.199 Y147 E12.16911
G1 X35.624 Y146.6 E12.18852
G1 X36.094 Y146.189 E12.20929
G1 X39.217 Y143.582 E12.3446
G1 X39.831 Y143.084 E12.37089
G1 X40.33 Y142.703 E12.39177
G1 X40.814 Y142.362 E12.41146
G1 X44.219 Y140.07 E12.54798
G1 X44.833 Y139.67 E12.57235
G1 X45.465 Y139.287 E12.59693
G1 X46.117 Y138.926 E12.62172
G1 X49.513 Y137.118 E12.74968
G1 X50.194 Y136.768 E12.77515
G1 X50.731 Y136.511 E12.79495
G1 X51.31 Y136.259 E12.81595
G1 X55.149 Y134.698 E12.95379
G0 F6000 X55.294 Y135.071
G1 F1200 X55.948 Y134.817 E12.97713
G1 X56.573 Y134.596 E12.99917
G1 X57.208 Y134.398 E13.0213
G1 X60.867 Y133.333 E13.14805
G1 X61.725 Y133.097 E13.17764
G1 X62.234 Y132.97 E13.19509
G1 X62.889 Y132.833 E13.21735
G1 X66.952 Y132.093 E13.35471
G1 X67.616 Y131.981 E13.3771
G1 X68.226 Y131.897 E13.39758
G1 X68.822 Y131.837 E13.41751
G1 X72.749 Y131.532 E13.54851
G1 X73.657 Y131.473 E13.57878
G1 X74.24 Y131.452 E13.59818
G1 X74.84 Y131.453 E13.61814
G1 X78.828 Y131.554 E13.75082
G1 X79.675 Y131.587 E13.77901
G1 X80.317 Y131.631 E13.80042
G1 X80.85 Y131.689 E13.81825
G1 X84.98 Y132.223 E13.95676
G1 X85.672 Y132.323 E13.98001
G1 X86.242 Y132.422 E13.99925
G1 X86.825 Y132.545 E14.01907
G1 X90.863 Y133.496 E14.15705
G1 X91.707 Y133.71 E14.18601
G1 X94.688 Y134.508 E14.28865
G1 X97.147 Y135.086 E14.37267
G1 X99.612 Y135.593 E14.45637
G1 X102.128 Y136.037 E14.54134
G1 X104.597 Y136.401 E14.62435
G1 X107.132 Y136.702 E14.70926
G1 X109.631 Y136.928 E14.79271
G1 X112.162 Y137.083 E14.87705
G1 X115.635 Y137.23 E14.99267
G1 X116.605 Y137.288 E15.02499
G1 X119.131 Y137.367 E15.10904
G1 X121.634 Y137.375 E15.1923
G1 X124.213 Y137.318 E15.27809
G1 X125.411 Y137.366 E15.31797
G1 X125.784 Y137.403 E15.33044
G1 X126.678 Y137.533 E15.36049
G1 X127.621 Y137.755 E15.39271
G1 X128.251 Y137.957 E15.41471
G1 X128.59 Y138.077 E15.42667
G1 X129.459 Y138.431 E15.45788
G1 X130.294 Y138.859 E15.48909
G1 X131.059 Y139.34 E15.51915
G1 X131.666 Y139.793 E15.54434
G1 X132.018 Y140.075 E15.55934
G1 X132.697 Y140.671 E15.58939
G1 X133.37 Y141.376 E15.6218
G1 X133.953 Y142.109 E15.65296
G1 X134.429 Y142.823 E15.6815
G1 X134.619 Y143.137 E15.6937
G1 X135.07 Y143.96 E15.72492
G1 X135.445 Y144.817 E15.75603
G1 X135.72 Y145.609 E15.78392
G1 X135.978 Y146.539 E15.81602
G1 X136.16 Y147.544 E15.84999
G1 X136.407 Y149.553 E15.91731
G1 X136.769 Y152.038 E16.00083
G1 X137.205 Y154.525 E16.08481
G1 X137.72 Y157.052 E16.17059
G1 X138.283 Y159.463 E16.25294
G1 X138.932 Y161.921 E16.33749
G1 X139.651 Y164.365 E16.42222
G1 X140.426 Y166.745 E16.50547
G1 X140.773 Y167.718 E16.53983
G1 X141.129 Y168.756 E16.57633
G1 X141.347 Y169.479 E16.60145
G1 X141.439 Y169.831 E16.61355
G1 X141.636 Y170.748 E16.64474
G1 X141.751 Y171.68 E16.67598
G1 X141.783 Y172.614 E16.70706
G1 X141.752 Y173.326 E16.73076
G1 X141.719 Y173.744 E16.74471
G1 X141.603 Y174.676 E16.77595
G1 X141.405 Y175.592 E16.80712
G1 X141.13 Y176.486 E16.83823
G1 X140.856 Y177.171 E16.86276
G1 X140.582 Y177.786 E16.88516
G1 X140.345 Y178.287 E16.90359
G1 X139.23 Y180.734 E16.99303
G1 X138.253 Y183.053 E17.07673
G1 X137.331 Y185.424 E17.16134
G1 X136.483 Y187.804 E17.24537
G1 X135.708 Y190.189 E17.32878
G1 X134.993 Y192.621 E17.41309
G1 X134.349 Y195.059 E17.49696
G1 X133.77 Y197.54 E17.5817
G1 X132.448 Y203.899 E17.79772
G1 X132.311 Y204.512 E17.81861
G1 X132.156 Y205.116 E17.83935
G1 X131.881 Y206.076 E17.87257
G1 X131.253 Y208.146 E17.94451
G1 X130.885 Y209.284 E17.98429
G1 X130.625 Y210.019 E18.01022
G1 X130.329 Y210.786 E18.03757
G1 X129.787 Y212.093 E18.08463
G1 X128.295 Y215.488 E18.20797
G1 X128.092 Y215.924 E18.22397
G1 X127.372 Y217.362 E18.27745
G1 X126.822 Y218.367 E18.31556
G1 X125.484 Y220.649 E18.40354
G1 X125.11 Y221.268 E18.4276
G1 X124.773 Y221.786 E18.44815
G1 X124.251 Y222.543 E18.47873
G1 X122.259 Y225.346 E18.59311
G1 X121.699 Y226.11 E18.62461
G1 X121.379 Y226.523 E18.64199
G1 X121 Y226.978 E18.66169
G1 X118.365 Y229.978 E18.79449
G1 X117.779 Y230.627 E18.82357
G1 X117.265 Y231.157 E18.84813
G1 X116.737 Y231.663 E18.87245
G1 X113.916 Y234.274 E19.0003
G1 X113.383 Y234.753 E19.02414
G1 X112.953 Y235.12 E19.04294
G1 X112.447 Y235.52 E19.06439
G1 X109.259 Y237.913 E19.19697
G1 X108.583 Y238.406 E19.2248
G1 X108.157 Y238.7 E19.24202
G1 X107.609 Y239.05 E19.26364
G1 X104.172 Y241.116 E19.39702
G1 X103.53 Y241.49 E19.42173
G1 X102.959 Y241.799 E19.44333
G1 X101.866 Y242.346 E19.48398
G1 X99.535 Y243.463 E19.56995
G1 X98.404 Y243.977 E19.61127
G1 X97.352 Y244.402 E19.64901
G1 X96.371 Y244.759 E19.68373
G1 X93.025 Y245.922 E19.80155
G1 X92.276 Y246.17 E19.82779
G1 X91.735 Y246.333 E19.84658
G1 X91.173 Y246.479 E19.8659
G1 X87.14 Y247.434 E20.00374
G1 X86.426 Y247.591 E20.02806
G1 X85.87 Y247.697 E20.04688
G1 X85.237 Y247.795 E20.06819
G1 X81.16 Y248.322 E20.20492
G1 X80.475 Y248.401 E20.22785
G1 X79.874 Y248.454 E20.24792
G1 X79.269 Y248.483 E20.26806
G1 X75.182 Y248.59 E20.40405
G1 X74.423 Y248.599 E20.42929
G1 X73.823 Y248.589 E20.44925
G1 X73.271 Y248.559 E20.46764
G1 X69.267 Y248.25 E20.60121
G1 X68.407 Y248.172 E20.62993
G1 X67.741 Y248.089 E20.65225
G1 X67.024 Y247.974 E20.6764
G1 X63.312 Y247.297 E20.8019
G1 X62.473 Y247.132 E20.83034
G1 X61.892 Y247 E20.85016
G1 X61.293 Y246.84 E20.87078
G1 X57.368 Y245.698 E21.00674
G1 X56.757 Y245.51 E21.028
G1 X56.176 Y245.311 E21.04843
G1 X54.984 Y244.864 E21.09077
G1 X52.506 Y243.878 E21.17947
G1 X51.545 Y243.476 E21.21412
G1 X51.071 Y243.263 E21.2314
G1 X50.471 Y242.973 E21.25357
G1 X49.5 Y242.474 E21.28988
G1 X46.497 Y240.875 E21.40303
G1 X45.709 Y240.442 E21.43294
G1 X45.194 Y240.139 E21.45281
G1 X44.733 Y239.843 E21.47104
G1 X41.248 Y237.5 E21.61071
G1 X40.656 Y237.087 E21.63472
G1 X40.225 Y236.768 E21.65255
G1 X39.766 Y236.403 E21.67205
G1 X36.621 Y233.783 E21.8082
G1 X36.022 Y233.268 E21.83447
G1 X35.501 Y232.788 E21.85804
G1 X35.016 Y232.307 E21.88075
G1 X32.324 Y229.544 E22.00906
G1 X31.81 Y229.003 E22.03388
G1 X31.385 Y228.526 E22.05513
G1 X31.025 Y228.092 E22.07388
G1 X28.549 Y224.966 E22.20652
G1 X28.022 Y224.282 E22.23524
G1 X27.685 Y223.816 E22.25436
G1 X27.366 Y223.34 E22.27342
G1 X25.218 Y219.968 E22.4064
G1 X24.749 Y219.209 E22.43607
G1 X24.482 Y218.75 E22.45373
G1 X24.172 Y218.169 E22.47564
G1 X22.408 Y214.638 E22.60692
G1 X22.05 Y213.895 E22.63435
G1 X21.804 Y213.343 E22.65445
G1 X21.435 Y212.445 E22.68674
G1 X20.507 Y210.067 E22.77164
G1 X20.211 Y209.279 E22.79964
G1 X20.057 Y208.841 E22.81508
G1 X19.675 Y207.643 E22.8569
G1 X19.347 Y206.478 E22.89716
G1 X18.493 Y203.233 E23.00876
G1 X18.281 Y202.381 E23.03796
G1 X18.17 Y201.88 E23.05503
G1 X18.056 Y201.254 E23.07619
G1 X17.413 Y197.13 E23.21502
G1 X17.311 Y196.407 E23.2393
G1 X17.247 Y195.831 E23.25858
G1 X17.206 Y195.269 E23.27732
G1 X16.991 Y191.139 E23.41487
G1 X16.964 Y190.418 E23.43887
G1 X16.959 Y189.817 E23.45886
G1 X16.976 Y189.229 E23.47842
G1 X17.182 Y185.206 E23.6124
G1 X17.235 Y184.393 E23.6395
G1 X17.291 Y183.797 E23.65941
G1 X17.372 Y183.194 E23.67965
G1 X18.002 Y179.14 E23.8161
G1 X18.119 Y178.444 E23.83958
G1 X18.251 Y177.789 E23.8618
G1 X18.385 Y177.235 E23.88076
G1 X19.429 Y173.272 E24.01706
G1 X19.625 Y172.568 E24.04137
G1 X19.819 Y171.95 E24.06291
G1 X20.041 Y171.321 E24.0851
G1 X21.402 Y167.712 E24.21339
G1 X21.713 Y166.919 E24.24172
G1 X21.983 Y166.291 E24.26445
G1 X22.267 Y165.693 E24.28647
G1 X23.968 Y162.291 E24.41298
G1 X24.374 Y161.506 E24.44237
G1 X24.655 Y160.997 E24.46171
G1 X24.947 Y160.512 E24.48054
G1 X27.181 Y156.998 E24.61904
G1 X27.568 Y156.409 E24.64248
G1 X27.957 Y155.856 E24.66496
G1 X28.39 Y155.285 E24.6888
G1 X30.722 Y152.339 E24.81377
G1 X31.299 Y151.631 E24.84414
G1 X31.666 Y151.205 E24.86285
G1 X32.071 Y150.768 E24.88266
G1 X34.853 Y147.91 E25.01532
G1 X35.473 Y147.291 E25.04446
G1 X35.887 Y146.901 E25.06337
G1 X36.35 Y146.496 E25.08383
G1 X39.469 Y143.893 E25.21895
G1 X40.074 Y143.402 E25.24487
G1 X40.561 Y143.03 E25.26525
G1 X41.037 Y142.694 E25.28463
G1 X44.438 Y140.405 E25.42098
G1 X45.04 Y140.012 E25.44489
